src/assets/icons/Instagram_icon.svg

<?xml version="1.0" encoding="UTF-8"?>
<svg width="64" height="64" fill="none" version="1.1" viewBox="0 0 64 64" xmlns="http://www.w3.org/2000/svg" xmlns:cc="http://creativecommons.org/ns#" xmlns:dc="http://purl.org/dc/elements/1.1/" xmlns:rdf="http://www.w3.org/1999/02/22-rdf-syntax-ns#">
 <metadata>
  <rdf:RDF>
   <cc:Work rdf:about="">
    <dc:format>image/svg+xml</dc:format>
    <dc:type rdf:resource="http://purl.org/dc/dcmitype/StillImage"/>
    <dc:title/>
   </cc:Work>
  </rdf:RDF>
 </metadata>
 <circle cx="32" cy="28" r="24" fill="#fff"/>
 <path d="m31.997 23.998c-2.2035 0-4.0017 1.7982-4.0017 4.0017s1.7982 4.0017 4.0017 4.0017 4.0017-1.7982 4.0017-4.0017-1.7982-4.0017-4.0017-4.0017zm12.002 4.0017c0-1.6571 0.015-3.2992-0.078-4.9533-0.0931-1.9213-0.5314-3.6265-1.9364-5.0314-1.4079-1.408-3.1101-1.8433-5.0314-1.9364-1.6571-0.093-3.2992-0.078-4.9533-0.078-1.6571 0-3.2992-0.015-4.9533 0.078-1.9213 0.0931-3.6265 0.5314-5.0314 1.9364-1.408 1.4079-1.8433 3.1101-1.9364 5.0314-0.093 1.6571-0.078 3.2992-0.078 4.9533s-0.015 3.2992 0.078 4.9533c0.0931 1.9213 0.5314 3.6265 1.9364 5.0314 1.4079 1.408 3.1101 1.8433 5.0314 1.9364 1.6571 0.093 3.2992 0.078 4.9533 0.078 1.6571 0 3.2992 0.015 4.9533-0.078 1.9213-0.0931 3.6265-0.5314 5.0314-1.9364 1.408-1.4079 1.8433-3.1101 1.9364-5.0314 0.096-1.6541 0.078-3.2962 0.078-4.9533zm-12.002 6.1572c-3.4073 0-6.1572-2.7499-6.1572-6.1572s2.7499-6.1572 6.1572-6.1572 6.1572 2.7499 6.1572 6.1572-2.7499 6.1572-6.1572 6.1572zm6.4093-11.129c-0.7955 0-1.4379-0.6424-1.4379-1.4379 0-0.7956 0.6424-1.438 1.4379-1.438 0.7956 0 1.438 0.6424 1.438 1.438 2e-4 0.1889-0.0368 0.376-0.109 0.5505-0.0722 0.1746-0.1781 0.3332-0.3116 0.4668-0.1336 0.1336-0.2922 0.2395-0.4668 0.3117-0.1746 0.0721-0.3617 0.1092-0.5506 0.1089z" fill="#1a1a1a"/>
</svg>

<svg width="64" height="64" viewBox="0 0 64 64" fill="none" xmlns="http://www.w3.org/2000/svg">
<g filter="url(#filter0_d)">
<circle cx="32" cy="28" r="24" fill="white"/>
</g>
<path d="M31.997 23.9983C29.7935 23.9983 27.9953 25.7965 27.9953 28C27.9953 30.2035 29.7935 32.0017 31.997 32.0017C34.2005 32.0017 35.9987 30.2035 35.9987 28C35.9987 25.7965 34.2005 23.9983 31.997 23.9983ZM43.9991 28C43.9991 26.3429 44.0141 24.7008 43.9211 23.0467C43.828 21.1254 43.3897 19.4202 41.9847 18.0153C40.5768 16.6073 38.8746 16.172 36.9533 16.0789C35.2962 15.9859 33.6541 16.0009 32 16.0009C30.3429 16.0009 28.7008 15.9859 27.0467 16.0789C25.1254 16.172 23.4202 16.6103 22.0153 18.0153C20.6073 19.4232 20.172 21.1254 20.0789 23.0467C19.9859 24.7038 20.0009 26.3459 20.0009 28C20.0009 29.6541 19.9859 31.2992 20.0789 32.9533C20.172 34.8746 20.6103 36.5798 22.0153 37.9847C23.4232 39.3927 25.1254 39.828 27.0467 39.9211C28.7038 40.0141 30.3459 39.9991 32 39.9991C33.6571 39.9991 35.2992 40.0141 36.9533 39.9211C38.8746 39.828 40.5798 39.3897 41.9847 37.9847C43.3927 36.5768 43.828 34.8746 43.9211 32.9533C44.0171 31.2992 43.9991 29.6571 43.9991 28ZM31.997 34.1572C28.5897 34.1572 25.8398 31.4073 25.8398 28C25.8398 24.5927 28.5897 21.8428 31.997 21.8428C35.4043 21.8428 38.1542 24.5927 38.1542 28C38.1542 31.4073 35.4043 34.1572 31.997 34.1572ZM38.4063 23.0286C37.6108 23.0286 36.9684 22.3862 36.9684 21.5907C36.9684 20.7951 37.6108 20.1527 38.4063 20.1527C39.2019 20.1527 39.8443 20.7951 39.8443 21.5907C39.8445 21.7796 39.8075 21.9667 39.7353 22.1412C39.6631 22.3158 39.5572 22.4744 39.4237 22.608C39.2901 22.7416 39.1315 22.8475 38.9569 22.9197C38.7823 22.9918 38.5952 23.0289 38.4063 23.0286Z" fill="#4DA8FF"/>
<defs>
<filter id="filter0_d" x="0" y="0" width="64" height="64" filterUnits="userSpaceOnUse" color-interpolation-filters="sRGB">
<feFlood flood-opacity="0" result="BackgroundImageFix"/>
<feColorMatrix in="SourceAlpha" type="matrix" values="0 0 0 0 0 0 0 0 0 0 0 0 0 0 0 0 0 0 127 0"/>
<feOffset dy="4"/>
<feGaussianBlur stdDeviation="4"/>
<feColorMatrix type="matrix" values="0 0 0 0 0.0611066 0 0 0 0 0.437703 0 0 0 0 0.793181 0 0 0 0.15 0"/>
<feBlend mode="normal" in2="BackgroundImageFix" result="effect1_dropShadow"/>
<feBlend mode="normal" in="SourceGraphic" in2="effect1_dropShadow" result="shape"/>
</filter>
</defs>
</svg>
